assets/awssystemsmanagerstatemanager/original.svg

<svg height="48" viewBox="0 0 48 48" width="48" xmlns="http://www.w3.org/2000/svg"><path d="m35.417 36.035h3.236v-3.236h-3.236zm-1 2.001h5.236a1 1 0 0 0 1-1v-5.237a1 1 0 0 0 -1-1h-5.236a1 1 0 0 0 -1 1v5.237a1 1 0 0 0 1 1m-10.473-3.42.852 1.42h-1.703zm-2.618 3.42h5.236a.999.999 0 0 0 .858-1.515l-2.618-4.363c-.362-.602-1.354-.602-1.715 0l-2.618 4.363a.999.999 0 0 0 .857 1.515m-10.472-4.364a1.183 1.183 0 0 1 0 2.364 1.183 1.183 0 0 1 0-2.364m0 4.364a3.186 3.186 0 0 0 3.182-3.182 3.186 3.186 0 0 0 -3.182-3.182 3.185 3.185 0 0 0 -3.181 3.182 3.185 3.185 0 0 0 3.181 3.182m21.944 1.491h8.473v-16.327h-8.473zm-.999-18.327a1 1 0 0 0 -1 1v18.327a1 1 0 0 0 1 1h10.472a1 1 0 0 0 1-1v-18.327a1 1 0 0 0 -1-1zm-12.092 18.327h8.473v-19.817h-8.473zm9.473-21.818h-10.472a1 1 0 0 0 -1 1v21.818a1 1 0 0 0 1 1h10.472a1 1 0 0 0 1-1v-21.818a1 1 0 0 0 -1-1m-22.562 21.818h8.472v-9.346h-8.472zm9.472-11.346h-10.472a1 1 0 0 0 -1 1v11.346a1 1 0 0 0 1 1h10.472a1 1 0 0 0 1-1v-11.346a1 1 0 0 0 -1-1m-7.727-17.453h16.327v-1.491h-16.327zm-1 2h18.327a1 1 0 0 0 1-1v-3.491a1 1 0 0 0 -1-1h-18.327a1 1 0 0 0 -1 1v3.491a1 1 0 0 0 1 1m23.999-4.364c.651 0 1.182.53 1.182 1.181 0 .653-.531 1.183-1.182 1.183s-1.182-.53-1.182-1.183c0-.651.531-1.181 1.182-1.181m0 4.364a3.187 3.187 0 0 0 3.182-3.183 3.185 3.185 0 0 0 -3.182-3.181 3.185 3.185 0 0 0 -3.182 3.181 3.187 3.187 0 0 0 3.182 3.183m7.855-4.364a1.183 1.183 0 0 1 0 2.364 1.183 1.183 0 0 1 0-2.364m0 4.364a3.186 3.186 0 0 0 3.181-3.183 3.185 3.185 0 0 0 -3.181-3.181 3.185 3.185 0 0 0 -3.182 3.181 3.187 3.187 0 0 0 3.182 3.183m4.672 26.714a4.453 4.453 0 0 1 -4.448 4.448h-30.994a4.45 4.45 0 0 1 -4.447-4.448v-30.993a4.453 4.453 0 0 1 4.447-4.449h30.994a4.453 4.453 0 0 1 4.448 4.449zm-4.448-37.442h-30.994a6.455 6.455 0 0 0 -6.447 6.449v30.993a6.455 6.455 0 0 0 6.447 6.448h30.994a6.455 6.455 0 0 0 6.448-6.448v-30.993a6.455 6.455 0 0 0 -6.448-6.449" fill="#e7157b" fill-rule="evenodd"/></svg>

<svg xmlns="http://www.w3.org/2000/svg" width="48" height="48" viewBox="0 0 48 48"><path fill="#e7157b" fill-rule="evenodd" d="M35.417 36.035h3.236v-3.236h-3.236zm-1 2.001h5.236a1 1 0 0 0 1-1v-5.237a1 1 0 0 0-1-1h-5.236a1 1 0 0 0-1 1v5.237a1 1 0 0 0 1 1m-10.473-3.42.852 1.42h-1.703zm-2.618 3.42h5.236a.999.999 0 0 0 .858-1.515l-2.618-4.363c-.362-.602-1.354-.602-1.715 0l-2.618 4.363a.999.999 0 0 0 .857 1.515m-10.472-4.364a1.183 1.183 0 0 1 0 2.364 1.183 1.183 0 0 1 0-2.364m0 4.364a3.186 3.186 0 0 0 3.182-3.182 3.186 3.186 0 0 0-3.182-3.182 3.185 3.185 0 0 0-3.181 3.182 3.185 3.185 0 0 0 3.181 3.182m21.944 1.491h8.473V23.2h-8.473zM31.799 21.2a1 1 0 0 0-1 1v18.327a1 1 0 0 0 1 1h10.472a1 1 0 0 0 1-1V22.2a1 1 0 0 0-1-1zM19.707 39.527h8.473V19.71h-8.473zm9.473-21.818H18.708a1 1 0 0 0-1 1v21.818a1 1 0 0 0 1 1H29.18a1 1 0 0 0 1-1V18.709a1 1 0 0 0-1-1M6.618 39.527h8.472v-9.346H6.618zm9.472-11.346H5.618a1 1 0 0 0-1 1v11.346a1 1 0 0 0 1 1H16.09a1 1 0 0 0 1-1V29.181a1 1 0 0 0-1-1M8.363 10.728H24.69V9.237H8.363zm-1 2H25.69a1 1 0 0 0 1-1V8.237a1 1 0 0 0-1-1H7.363a1 1 0 0 0-1 1v3.491a1 1 0 0 0 1 1m23.999-4.364c.651 0 1.182.53 1.182 1.181 0 .653-.531 1.183-1.182 1.183s-1.182-.53-1.182-1.183c0-.651.531-1.181 1.182-1.181m0 4.364a3.187 3.187 0 0 0 3.182-3.183 3.185 3.185 0 0 0-3.182-3.181 3.185 3.185 0 0 0-3.182 3.181 3.187 3.187 0 0 0 3.182 3.183m7.855-4.364a1.183 1.183 0 0 1 0 2.364 1.183 1.183 0 0 1 0-2.364m0 4.364a3.186 3.186 0 0 0 3.181-3.183 3.185 3.185 0 0 0-3.181-3.181 3.185 3.185 0 0 0-3.182 3.181 3.187 3.187 0 0 0 3.182 3.183m4.672 26.714a4.453 4.453 0 0 1-4.448 4.448H8.447A4.45 4.45 0 0 1 4 39.442V8.449A4.453 4.453 0 0 1 8.447 4h30.994a4.453 4.453 0 0 1 4.448 4.449zM39.441 2H8.447A6.455 6.455 0 0 0 2 8.449v30.993a6.455 6.455 0 0 0 6.447 6.448h30.994a6.455 6.455 0 0 0 6.448-6.448V8.449A6.455 6.455 0 0 0 39.441 2"/></svg>
